Front/img/common-section_cover:sousmetier/illu-5.svg

<svg fill="none" xmlns="http://www.w3.org/2000/svg" viewBox="0 0 471 541"><path d="M343.734 162.629c-37.133-2.611-63.295 25.465-71.734 39.83h198c-6.925-10.774-26.941-29.905-51.61-20.241-30.836 12.079-28.239-16.324-74.656-19.589z" fill="#fff"/><path d="M289.533 504.866c0-13.583 5.186-30.693 6.52-43.36l-109.066-9.589s.477 40.738 0 55.988C186.511 523.155 177 540 177 540h119.053c-6.52-11.787-6.52-18.413-6.52-35.134z" fill="#081B42"/><path d="M301.287 303.624l-76.455-9.91 9.015-68.949 39.148-24.178 36.793 38.019-8.501 65.018z" fill="#E9D694"/><path d="M303.578 245.936s-2.611 13.446-3.081 23.571c-.471 10.124 3.771 18.609-5.774 33.114l-65.636-8.346s-4.609-8.452-.853-19.293c3.756-10.84 4.261-8.279 3.691-20.968l71.653-8.078z" fill="#C9B058"/><path d="M186.5 331.999c9.872-10.059 37.127-6.421 52-12.438 5.534-2.238 9.443-21.396 10.755-31.638-15.115-8.863-20.593-32.512-17.5-56.171 3.817-29.197 20.286-43.139 42.075-40.291 21.789 2.849 34.245 20.821 30.428 50.018-3.037 23.225-13.96 44.593-30.428 49.657-1.334 10.198-2.554 24.79 2.281 28.425 12.826 9.638 34.173 9.265 40.408 21.871 17.008 34.468-10.482 105.315-10.482 105.315h-128.39s-12.33-93.192 8.853-114.748z" fill="#F4C7C3"/><path d="M238.5 319.565c2.665-1.029 6.413-8.848 9.509-23.374 10.604 5.807 18.841 4.984 24.949 2.876-.539 12.546.639 18.582 3.181 20.498 12.826 9.638 36.448 2.844 43.861 18.778 13.55 23.046-10.556 108.408-10.556 108.408H161.025S164.81 353.109 186 331.499c9.871-10.059 37.6-5.921 52.5-11.934z" fill="#081B42"/><path d="M321 458.91c5-3.745 8-16.851 8.5-18.411h-150l-7 27.46c104.5 6.865 145.584-6.865 148.5-9.049z" fill="#081B42"/><path d="M199.666 366.81s-10.109 15.455-11.034 25.471l-.924 10.017 1.634-.502s.468-8.741.994-11.812c.525-3.072 4.954-15.482 9.33-23.174zM301.743 380.156s5.946 24.592 3.814 30.801l-2.185 6.188-.841-.509a36.363 36.363 0 002.105-9.05c.223-3.814-2.893-27.43-2.893-27.43z" fill="#0C2048"/><path opacity=".1" d="M236.821 237.207l-3.507 26.827a85.72 85.72 0 01-1.557-32.283 80.635 80.635 0 014.433-18.015l37.424-15.947 30.298 46.137c-.127.975-.254 1.95-.502 2.896-7.837-3.188-27.673-13.715-31.115-39.467 0 0-13.132 22.263-35.474 29.852z" fill="#000"/><path d="M272.085 211.34s6.68 23.839 30.838 33.594l-7.567 57.878 11.829 1.97s14.664-72.541 3.991-93.652a41.385 41.385 0 00-17.336-18.108 40.08 40.08 0 00-28.221-3.69s-27.594-4.368-35.739 27.207c-8.144 31.574-9.893 76.514-9.893 76.514l9.074 1.155s6.043-48.749 8.025-61.376c.022.015 22.919-4.213 34.999-21.492z" fill="#E9D694"/><path opacity=".1" d="M266.92 292.961a26.998 26.998 0 01-11.51-1.505s4.787 6.314 11.51 1.505z" fill="#000"/><path d="M370 422.5c4.8 8.4 2 20.833 0 24-51.678 16.706-72.566 17.584-88.538 20.886l7.6-41.799c20-3 63.438-3.087 80.938-3.087z" fill="#081B42"/><path d="M358.5 482c-5.167.167-17.5 2.1-25.5 8.5M360 487.5c-5.5 1.833-18.3 8.8-25.5 22M407.486 461.805c1.011-4 5.052-12.929 13.122-16.637M411.5 462.5c4-3.166 14.1-9.1 22.5-7.5" stroke="#00181B"/><path d="M428 471c13.2 23.6 33.833 31.5 42.5 32.5v37H377c1-9.833 2.4-31 0-37-3-7.5-12-4.5-18.5-14.5s-5-18-4.5-25.5c.4-6-2.5-21.167-4-28 9.2 2.8 18.167 10.5 21.5 14 6-3.2 16.167-5.333 20.5-6V426c7 5.5 19.5 15.5 36 45z" fill="#E3A266"/><path d="M391.5 457.5c-2-5.2-5.5-10.5-7-12.5l-7 1.5c3.6 1.2 10.833 7.833 14 11zM391.5 450c-.8-2-2.667-4.833-3.5-6l3.5-.5v6.5zM380.5 453.5l-5-6-3.5 1.5c1.6.4 6.333 3.167 8.5 4.5z" fill="#E1E1E1"/><path d="M400 500c-12.4 6.4-19.833 18-22 23v-12.5c6.4-6.8 17.333-9.833 22-10.5zM418.5 511c18.8-10 35.167-11.5 41-11l-10-5.5c-14.4 2.4-26.667 12-31 16.5z" fill="#FBC492"/><path d="M213.501 453.5c-12-5-30.5 2.333-41.5 6.5l-8 4 6 2.5c7.5-2.167 24.4-7 32-9 9.5-2.5 16 7 18.5 6.5s3.941-5.941-7-10.5z" fill="#D3662F"/><path d="M60 445C37.5 485 29.623 478.477.123 539.977c38 0 164.377.023 164.377.023s-10-12-10-31c0-12 3-20 14.5-29.5 10.119-8.359 38-16.5 35-22-1.068-1.959-14.563 3.395-24.5 5.5-10.103 2.14-15.542.765-10.5-1 11.058-3.87 16-1 35-17s11.273-41.665 10-46.5c-2.5-9.5-37 9.5-45 0s-21.5-14.5-44-12C84.5 391 71.077 425.307 60 445z" fill="#fff"/><path d="M210.5 404c1.6 1.6 4.667 6.333 6 8.5-.167-2.333-.7-7.8-1.5-11-1-4-1.5-6-6.5-6s-5.829 2.527-5.5 4.5c.5 3 1.5 5.5 6 9 .882.686 3.5 2 4 2s1-.5-1-2-3.5-7-1.5-5z" fill="#00181B" stroke="#000"/><path d="M133 498.5c5.2 2.8 16.833 4.833 22 5.5l1 16.5c-51-4.5-105.04-32.747-113.54-48.747l9.535-13.445c20 23.5 53.838 31.359 64.505 35.692l-3 3h7c-.5 4-7 7-4 7 2.4 0 6.667-1.667 8.5-2.5 2 3.6 8.667 3 11.5 5-2-3.2-3.167-6.667-3.5-8z" fill="#00181B"/><path d="M147.5 438.877c-3.6-3.808-5.833-12.838-6.5-16.877 1.5 5.5 7 17.8 17 23l4 1.5c-1.667.5-6.2 1.3-11 .5 1.833 3.575 5.7 11.48 6.5 14.5 1 3.775.5 11.5-7.5 16 .5-.5 1.5-2 1.5-4-6.5 4.524-22.9 10.164-36.5-3.464 5.5 4.76 13.5 7.356 23 5.193 7.6-1.731 11.5-7.357 12.5-9.954 1.2 2.078.5 4.039 0 4.761 3-2.164 3.5-6.924 2-11.252-1.2-3.462-5.167-12.406-7-16.445 2 .693 6.5 1.731 8.5 2.164-.667-.288-2.9-1.817-6.5-5.626z" fill="#E1E1E1"/><ellipse rx="4.5" ry="8" transform="matrix(-1 0 0 1 156.5 527)" fill="#CDAE19"/><ellipse rx="4.5" ry="8" transform="matrix(-1 0 0 1 158.5 527)" fill="#FFD300"/><path d="M341 118H1c0-11.063 10.452-33.19 52.258-33.19C127.452 84.81 125.516 36 178.42 36c61.291 0 64.516 48.81 103.226 48.81C322.628 84.81 341 102.38 341 118z" fill="#fff"/><path d="M164.5 394l-5-3.5-10-5c-10.667 0-32.5.4-34.5 2-2.5 2-2.5 14.5-2 16s7.5 14.5 10 19c2 3.6 5.167 3.833 6.5 3.5.5 1.333 2.1 4.2 4.5 5 2.4.8 3.667-2.333 4-4 .833.667 2.8 1.2 4-2 1.2-3.2.5-22 0-31 .833.833 2.8 2.9 4 4.5 1.5 2 0 12.5 1 16 .8 2.8 3.333 2.833 4.5 2.5l1-14.5-3-12c2.167.5 7.2 1.9 10 3.5s4.5.667 5 0z" fill="#E1E1E1"/><path d="M140.443 374.5c-2.443 0-2.239 2.331-6.943 1-1.796 0-3.955 2.728-7.099 1.663-3.93-1.331-4.936 3.533-6.901 4.198-1.965.666-4.599 1.997-5.254 5.326-.655 3.328 0 12.648 1.964 15.976 1.965 3.328 5.24 10.651 7.86 15.976 2.096 4.261 3.929 3.551 4.584 2.663.874 2.441 3.275 7.189 5.895 6.657 2.62-.533 1.965-4.66 1.31-6.657.873 1.775 3.013 4.66 4.584 1.997 1.965-3.328 3.357-19.526 3.357-22.854 0-3.329-.145-7.781-.8-9.778-.655-1.997 2.683 2.011 3.993 4.674 1.31 2.662 1.31 6.656 1.31 10.65 0 3.994.655 8.654 3.275 8.654 2.619 0 3.274-19.304 1.309-21.967-.571-.774-1.686-2.634-3.031-4.883 3.64.599 6.667 2.161 9.511 2.872 3.558.889 4.893-1.983 2.224-3.111-2.669-1.128-8.006-4.863-10.013-4.863-.91 0-3.048-.285-5.188-.613-2.499-4.009-4.951-7.58-5.947-7.58zM376.136 422.893c-2.845-.712-8.3-.297-10.672 0-3.202 10.672.148 18.676 2.224 21.345 1.037.148 3.379.711 4.446 1.778 1.334 1.334 2.224 6.671 3.113 9.339.703 2.109 1.779 4.891 3.113 8.004 1.829 4.267 4.447 4.447 4.891 2.668.445-1.779-2.223-7.115-2.223-8.894 0-1.778.445-7.115 1.334-7.559.889-.445 6.67 3.557 9.338 4.891 2.668 1.334 10.228 16.453 13.785 17.343 2.071.517 3.113-.89 3.113-1.779l1.334 2.223c2.159 3.455 5.156 1.878 5.328.155.086.184.138.191.008-.155 0 .052-.002.104-.008.155-.207-.446-.614-1.933.898-1.933 2.134 0 2.371-2.52 2.223-3.113l-1.779-4.002c2.135-.712 2.372-2.372 2.224-3.113-2.668-7.411-9.605-23.034-16.009-26.236-8.004-4.002-23.123-10.228-26.681-11.117z" fill="#F4C7C3"/></svg>

<svg width="471" height="541" viewBox="0 0 471 541" fill="none" xmlns="http://www.w3.org/2000/svg">
<path d="M343.734 162.629C306.601 160.018 280.439 188.094 272 202.459H470C463.075 191.685 443.059 172.554 418.39 182.218C387.554 194.297 390.151 165.894 343.734 162.629Z" fill="white"/>
<path d="M289.533 504.866C289.533 491.283 294.719 474.173 296.053 461.506L186.987 451.917C186.987 451.917 187.464 492.655 186.987 507.905C186.511 523.155 177 540 177 540L296.053 540C289.533 528.213 289.533 521.587 289.533 504.866Z" fill="#081B42"/>
<path d="M301.287 303.624C271.43 299.754 254.69 297.584 224.832 293.714L233.847 224.765L272.995 200.587L309.788 238.606L301.287 303.624Z" fill="#E9D694"/>
<path d="M303.578 245.936C303.578 245.936 300.967 259.382 300.497 269.507C300.026 279.631 304.268 288.116 294.723 302.621L229.087 294.275C229.087 294.275 224.478 285.823 228.234 274.982C231.99 264.142 232.495 266.703 231.925 254.014L303.578 245.936Z" fill="#C9B058"/>
<path d="M186.5 331.999C196.372 321.94 223.627 325.578 238.5 319.561C244.034 317.323 247.943 298.165 249.255 287.923C234.14 279.06 228.662 255.411 231.755 231.752C235.572 202.555 252.041 188.613 273.83 191.461C295.619 194.31 308.075 212.282 304.258 241.479C301.221 264.704 290.298 286.072 273.83 291.136C272.496 301.334 271.276 315.926 276.111 319.561C288.937 329.199 310.284 328.826 316.519 341.432C333.527 375.9 306.037 446.747 306.037 446.747L177.647 446.747C177.647 446.747 165.317 353.555 186.5 331.999Z" fill="#F4C7C3"/>
<path d="M238.5 319.565C241.165 318.536 244.913 310.717 248.009 296.191C258.613 301.998 266.85 301.175 272.958 299.067C272.419 311.613 273.597 317.649 276.139 319.565C288.965 329.203 312.587 322.409 320 338.343C333.55 361.389 309.444 446.751 309.444 446.751L161.025 446.751C161.025 446.751 164.81 353.109 186 331.499C195.871 321.44 223.6 325.578 238.5 319.565Z" fill="#081B42"/>
<path d="M321 458.91C326 455.165 329 442.059 329.5 440.499L179.5 440.499L172.5 467.959C277 474.824 318.084 461.094 321 458.91Z" fill="#081B42"/>
<path d="M199.666 366.81C199.666 366.81 189.557 382.265 188.632 392.281L187.708 402.298L189.342 401.796C189.342 401.796 189.81 393.055 190.336 389.984C190.861 386.912 195.29 374.502 199.666 366.81Z" fill="#0C2048"/>
<path d="M301.743 380.156C301.743 380.156 307.689 404.748 305.557 410.957L303.372 417.145L302.531 416.636C303.617 413.722 304.324 410.68 304.636 407.586C304.859 403.772 301.743 380.156 301.743 380.156Z" fill="#0C2048"/>
<path opacity="0.1" d="M236.821 237.207L233.314 264.034C230.753 253.47 230.224 242.514 231.757 231.751C232.537 225.595 234.024 219.55 236.19 213.736L273.614 197.789L303.912 243.926C303.785 244.901 303.658 245.876 303.41 246.822C295.573 243.634 275.737 233.107 272.295 207.355C272.295 207.355 259.163 229.618 236.821 237.207Z" fill="black"/>
<path d="M272.085 211.34C272.085 211.34 278.765 235.179 302.923 244.934L295.356 302.812L307.185 304.782C307.185 304.782 321.849 232.241 311.176 211.13C307.406 203.444 301.349 197.118 293.84 193.022C285.2 188.381 275.161 187.068 265.619 189.332C265.619 189.332 238.025 184.964 229.88 216.539C221.736 248.113 219.987 293.053 219.987 293.053L229.061 294.208C229.061 294.208 235.104 245.459 237.086 232.832C237.108 232.847 260.005 228.619 272.085 211.34Z" fill="#E9D694"/>
<path opacity="0.1" d="M266.92 292.961C263.019 293.3 259.092 292.786 255.41 291.456C255.41 291.456 260.197 297.77 266.92 292.961Z" fill="black"/>
<path d="M370 422.5C374.8 430.9 372 443.333 370 446.5C318.322 463.206 297.434 464.084 281.462 467.386L289.062 425.587C309.062 422.587 352.5 422.5 370 422.5Z" fill="#081B42"/>
<path d="M358.5 482C353.333 482.167 341 484.1 333 490.5" stroke="#00181B"/>
<path d="M360 487.5C354.5 489.333 341.7 496.3 334.5 509.5" stroke="#00181B"/>
<path d="M407.486 461.805C408.497 457.805 412.538 448.876 420.608 445.168" stroke="#00181B"/>
<path d="M411.5 462.5C415.5 459.334 425.6 453.4 434 455" stroke="#00181B"/>
<path d="M428 471C441.2 494.6 461.833 502.5 470.5 503.5V540.5H377C378 530.667 379.4 509.5 377 503.5C374 496 365 499 358.5 489C352 479 353.5 471 354 463.5C354.4 457.5 351.5 442.333 350 435.5C359.2 438.3 368.167 446 371.5 449.5C377.5 446.3 387.667 444.167 392 443.5V426C399 431.5 411.5 441.5 428 471Z" fill="#E3A266"/>
<path d="M391.5 457.5C389.5 452.3 386 447 384.5 445L377.5 446.5C381.1 447.7 388.333 454.333 391.5 457.5Z" fill="#E1E1E1"/>
<path d="M391.5 450C390.7 448 388.833 445.167 388 444L391.5 443.5V450Z" fill="#E1E1E1"/>
<path d="M380.5 453.5L375.5 447.5L372 449C373.6 449.4 378.333 452.167 380.5 453.5Z" fill="#E1E1E1"/>
<path d="M400 500C387.6 506.4 380.167 518 378 523V510.5C384.4 503.7 395.333 500.667 400 500Z" fill="#FBC492"/>
<path d="M418.5 511C437.3 501 453.667 499.5 459.5 500L449.5 494.5C435.1 496.9 422.833 506.5 418.5 511Z" fill="#FBC492"/>
<path d="M213.501 453.5C201.501 448.5 183.001 455.833 172.001 460L164.001 464L170.001 466.5C177.501 464.333 194.401 459.5 202.001 457.5C211.501 455 218.001 464.5 220.501 464C223.001 463.5 224.442 458.059 213.501 453.5Z" fill="#D3662F"/>
<path d="M60.0001 445C37.5 485 29.6227 478.477 0.122833 539.977C38.1227 539.977 164.5 540 164.5 540C164.5 540 154.5 528 154.5 509C154.5 497 157.5 489 169 479.5C179.119 471.141 207 463 204 457.5C202.932 455.541 189.437 460.895 179.5 463C169.397 465.14 163.958 463.765 169 462C180.058 458.13 185 461 204 445C223 429 215.273 403.335 214 398.5C211.5 389 177 408 169 398.5C161 389 147.5 384 125 386.5C84.5 391 71.0772 425.307 60.0001 445Z" fill="white"/>
<path d="M210.5 404C212.1 405.6 215.167 410.333 216.5 412.5C216.333 410.167 215.8 404.7 215 401.5C214 397.5 213.5 395.5 208.5 395.5C203.5 395.5 202.671 398.027 203 400C203.5 403 204.5 405.5 209 409C209.882 409.686 212.5 411 213 411C213.5 411 214 410.5 212 409C210 407.5 208.5 402 210.5 404Z" fill="#00181B" stroke="black"/>
<path d="M133 498.5C138.2 501.3 149.833 503.333 155 504L156 520.5C105 516 50.9601 487.753 42.4601 471.753L51.9951 458.308C71.9951 481.808 105.833 489.667 116.5 494L113.5 497H120.5C120 501 113.5 504 116.5 504C118.9 504 123.167 502.333 125 501.5C127 505.1 133.667 504.5 136.5 506.5C134.5 503.3 133.333 499.833 133 498.5Z" fill="#00181B"/>
<path d="M147.5 438.877C143.9 435.069 141.667 426.039 141 422C142.5 427.5 148 439.8 158 445L162 446.5C160.333 447 155.8 447.8 151 447C152.833 450.575 156.7 458.48 157.5 461.5C158.5 465.275 158 473 150 477.5C150.5 477 151.5 475.5 151.5 473.5C145 478.024 128.6 483.664 115 470.036C120.5 474.796 128.5 477.392 138 475.229C145.6 473.498 149.5 467.872 150.5 465.275C151.7 467.353 151 469.314 150.5 470.036C153.5 467.872 154 463.112 152.5 458.784C151.3 455.322 147.333 446.378 145.5 442.339C147.5 443.032 152 444.07 154 444.503C153.333 444.215 151.1 442.686 147.5 438.877Z" fill="#E1E1E1"/>
<ellipse rx="4.5" ry="8" transform="matrix(-1 0 0 1 156.5 527)" fill="#CDAE19"/>
<ellipse rx="4.5" ry="8" transform="matrix(-1 0 0 1 158.5 527)" fill="#FFD300"/>
<path d="M341 118H1C1 106.937 11.4516 84.8095 53.2581 84.8095C127.452 84.8095 125.516 36 178.419 36C239.71 36 242.935 84.8095 281.645 84.8095C322.628 84.8095 341 102.381 341 118Z" fill="white"/>
<path d="M164.5 394L159.5 390.5L149.5 385.5C138.833 385.5 117 385.9 115 387.5C112.5 389.5 112.5 402 113 403.5C113.5 405 120.5 418 123 422.5C125 426.1 128.167 426.333 129.5 426C130 427.333 131.6 430.2 134 431C136.4 431.8 137.667 428.667 138 427C138.833 427.667 140.8 428.2 142 425C143.2 421.8 142.5 403 142 394C142.833 394.833 144.8 396.9 146 398.5C147.5 400.5 146 411 147 414.5C147.8 417.3 150.333 417.333 151.5 417L152.5 402.5L149.5 390.5C151.667 391 156.7 392.4 159.5 394C162.3 395.6 164 394.667 164.5 394Z" fill="#E1E1E1"/>
<path d="M140.443 374.5C138 374.5 138.204 376.831 133.5 375.5C131.704 375.5 129.545 378.228 126.401 377.163C122.471 375.832 121.465 380.696 119.5 381.361C117.535 382.027 114.901 383.358 114.246 386.687C113.591 390.015 114.246 399.335 116.21 402.663C118.175 405.991 121.45 413.314 124.07 418.639C126.166 422.9 127.999 422.19 128.654 421.302C129.528 423.743 131.929 428.491 134.549 427.959C137.169 427.426 136.514 423.299 135.859 421.302C136.732 423.077 138.872 425.962 140.443 423.299C142.408 419.971 143.8 403.773 143.8 400.445C143.8 397.116 143.655 392.664 143 390.667C142.345 388.67 145.683 392.678 146.993 395.341C148.303 398.003 148.303 401.997 148.303 405.991C148.303 409.985 148.958 414.645 151.578 414.645C154.197 414.645 154.852 395.341 152.887 392.678C152.316 391.904 151.201 390.044 149.856 387.795C153.496 388.394 156.523 389.956 159.367 390.667C162.925 391.556 164.26 388.684 161.591 387.556C158.922 386.428 153.585 382.693 151.578 382.693C150.668 382.693 148.53 382.408 146.39 382.08C143.891 378.071 141.439 374.5 140.443 374.5Z" fill="#F4C7C3"/>
<path d="M376.136 422.893C373.291 422.181 367.836 422.596 365.464 422.893C362.262 433.565 365.612 441.569 367.688 444.238C368.725 444.386 371.067 444.949 372.134 446.016C373.468 447.35 374.358 452.687 375.247 455.355C375.95 457.464 377.026 460.246 378.36 463.359C380.189 467.626 382.807 467.806 383.251 466.027C383.696 464.248 381.028 458.912 381.028 457.133C381.028 455.355 381.473 450.018 382.362 449.574C383.251 449.129 389.032 453.131 391.7 454.465C394.368 455.799 401.928 470.918 405.485 471.808C407.556 472.325 408.598 470.918 408.598 470.029L409.932 472.252C412.091 475.707 415.088 474.13 415.26 472.407C415.346 472.591 415.398 472.598 415.268 472.252C415.268 472.304 415.266 472.356 415.26 472.407C415.053 471.961 414.646 470.474 416.158 470.474C418.292 470.474 418.529 467.954 418.381 467.361L416.602 463.359C418.737 462.647 418.974 460.987 418.826 460.246C416.158 452.835 409.221 437.212 402.817 434.01C394.813 430.008 379.694 423.782 376.136 422.893Z" fill="#F4C7C3"/>
</svg>
